X:1
T:Many a Man Been Murdered in Luzon
M:2/4
L:1/8
K:C
 G G/2G/2| cc cc| c/2- C3/2 CD| EE E^D| E2 GG| cc cc| c C2 E| EE DC|\
 D3 G| cc cG| c/2c/2 c c/2- C D/2| EE E^D| E3 G| cc cG| cc c C/2=D/2|\
 E/2 G3/2 GG| G- C2 G/2G/2| c/2c/2 c2 A| GE DC| E4-| EE-D C| E4-| EE DC|\
 E G3-| G3 G| c/2c/2 c2 A| GE DC| c/2c/2 c3-| c2 CD| EG GA| E2 D2|\
 C4-| C2||
